resources/icons/20px/sports-stadium.svg

<svg width="20" height="20" viewBox="0 0 20 20" fill="none" xmlns="http://www.w3.org/2000/svg">
<path d="M8 0.5C8 0.223877 8.22386 0 8.5 0C8.93296 0 9 0.268555 9 0.268555C9.33849 -0.183594 9.81889 0.0236816 10.3398 0.248535C10.8878 0.485352 11.4806 0.741211 12 0.268555V2.76294C11.4795 3.17725 10.8757 2.96289 10.3184 2.76489C9.80592 2.58301 9.33278 2.41504 9 2.76294V5.01978C9.3289 5.00659 9.66251 5 10 5C11.4222 5 12.7751 5.11865 14 5.33276V1.5C14 1.22388 14.2239 1 14.5 1C14.933 1 15 1.26855 15 1.26855C15.3385 0.816406 15.8189 1.02368 16.3398 1.24854C16.8878 1.48535 17.4806 1.74121 18 1.26855V3.76294C17.4795 4.17725 16.8757 3.96289 16.3184 3.76489C15.8059 3.58301 15.3328 3.41504 15 3.76294V5.53516C17.989 6.22681 20 7.51929 20 9C20 9.6311 19.6346 10.228 18.9839 10.7588C18.7033 8.66211 14.7884 7 10 7C5.21162 7 1.29665 8.66211 1.01609 10.7588C0.365364 10.228 0 9.6311 0 9C0 8.09717 0.747726 7.26416 2.00898 6.59473C2.00309 6.56396 2 6.53247 2 6.5V1.5C2 1.22388 2.22385 1 2.5 1C2.93296 1 3 1.26855 3 1.26855C3.33849 0.816406 3.81889 1.02368 4.33976 1.24854C4.88779 1.48535 5.48059 1.74121 6 1.26855V3.76294C5.47949 4.17725 4.8757 3.96289 4.31844 3.76489C3.80593 3.58301 3.33279 3.41504 3 3.76294V6.14331C4.35045 5.61377 6.07481 5.23633 8 5.08008V0.5Z" fill="black"/>
<path d="M17.868 11.469C17.9652 11.291 18 11.1343 18 11C18 10.7732 17.9007 10.4817 17.5683 10.1323C17.2311 9.77808 16.6958 9.41333 15.9578 9.08545C14.4844 8.43042 12.3789 8 10 8C7.62114 8 5.51558 8.43042 4.04218 9.08545C3.30421 9.41333 2.76892 9.77808 2.43166 10.1323C2.0993 10.4817 2 10.7732 2 11C2 11.1343 2.03475 11.291 2.13196 11.469C3.96278 12.4014 6.80658 13 10 13C13.1934 13 16.0372 12.4014 17.868 11.469Z" fill="black"/>
<path d="M10 14C12.8561 14 15.4878 13.5386 17.4425 12.7568C18.4687 12.3463 19.3565 11.6444 20 11V17C20 18.3433 17.0571 19.6177 13 20V19C13 17.3433 11.6569 16 10 16C8.34314 16 7 17.3433 7 19V20C2.94289 19.6177 0 18.3433 0 17V11C0.719746 11.7101 1.62576 12.3841 2.55754 12.7568C4.51218 13.5386 7.14392 14 10 14Z" fill="black"/>
</svg>

<svg xmlns="http://www.w3.org/2000/svg" viewBox="0 0 20 20">
  <path d="M8 .5a.5.5 0 0 1 .5-.5c.433 0 .5.269.5.269.338-.453.819-.245 1.34-.02.548.236 1.14.492 1.66.02v2.494c-.52.414-1.124.2-1.682.002-.512-.182-.985-.35-1.318-.002V5.02Q9.494 5 10 5c1.422 0 2.775.119 4 .333V1.5a.5.5 0 0 1 .5-.5c.433 0 .5.269.5.269.338-.453.819-.245 1.34-.02.548.236 1.14.492 1.66.02v2.494c-.52.414-1.124.2-1.682.002-.512-.182-.985-.35-1.318-.002v1.772c2.989.692 5 1.984 5 3.465 0 .631-.365 1.228-1.016 1.759C18.704 8.662 14.788 7 10 7s-8.703 1.662-8.984 3.759C.366 10.228 0 9.63 0 9c0-.903.748-1.736 2.009-2.405A.5.5 0 0 1 2 6.5v-5a.5.5 0 0 1 .5-.5c.433 0 .5.269.5.269.338-.453.819-.245 1.34-.02.548.236 1.14.492 1.66.02v2.494c-.52.414-1.124.2-1.682.002-.512-.182-.985-.35-1.318-.002v2.38c1.35-.53 3.075-.907 5-1.063z"/>
  <path d="M17.868 11.469A1 1 0 0 0 18 11c0-.227-.1-.518-.432-.868-.337-.354-.872-.719-1.61-1.047C14.484 8.43 12.378 8 10 8s-4.484.43-5.958 1.085c-.738.328-1.273.693-1.61 1.047-.333.35-.432.641-.432.868 0 .134.035.291.132.469C3.962 12.401 6.807 13 10 13s6.037-.599 7.868-1.531"/>
  <path d="M10 14c2.856 0 5.488-.461 7.442-1.243C18.47 12.347 19.357 11.644 20 11v6c0 1.343-2.943 2.618-7 3v-1a3 3 0 0 0-6 0v1c-4.057-.382-7-1.657-7-3v-6c.72.71 1.626 1.384 2.558 1.757C4.512 13.539 7.144 14 10 14"/>
</svg>
